src/assets/no-image-fallback.svg

<svg width="407" height="550" fill="none" xmlns="http://www.w3.org/2000/svg"><g opacity=".5"><rect x="1" y="1" width="405" height="548" rx="10" fill="#F7F7F7"/><path d="M202.442 231.967v-28.679h-40.383v99.844h74.883v-65.589h-28.884a5.635 5.635 0 0 1-3.971-1.633 5.558 5.558 0 0 1-1.645-3.943Zm-17.919 6.638c2.956 0 5.349 2.377 5.349 5.311s-2.393 5.311-5.349 5.311c-2.955 0-5.348-2.377-5.348-5.311s2.393-5.311 5.348-5.311Zm39.581 39.035h-49.195c-.896 0-1.391-1.022-.842-1.713l13.345-16.888a1.074 1.074 0 0 1 1.685 0l5.496 6.957 10.403-13.171a1.087 1.087 0 0 1 1.698 0l18.253 23.102c.548.691.053 1.713-.843 1.713Z" fill="#000" fill-opacity=".15"/><path d="m244.982 223.83-28.569-28.582a4.242 4.242 0 0 0-3-1.248h-56.394a4.244 4.244 0 0 0-4.248 4.25v110.5a4.244 4.244 0 0 0 4.248 4.25h84.962a4.245 4.245 0 0 0 4.249-4.25v-81.905a4.277 4.277 0 0 0-1.248-3.015Zm-33.534-20.028 24.984 24.995h-24.984v-24.995Zm25.223 99.636h-74.342v-99.876h40.092v28.688a5.578 5.578 0 0 0 5.575 5.578h28.675v65.61Z" fill="#919191"/><path d="m204.899 253.077-10.234 13.319-5.407-7.036a1.048 1.048 0 0 0-.829-.412 1.053 1.053 0 0 0-.828.412l-13.129 17.078a1.086 1.086 0 0 0 .272 1.57c.167.107.36.163.557.162h48.396c.881 0 1.368-1.033.829-1.732l-17.956-23.361a1.062 1.062 0 0 0-.836-.413 1.057 1.057 0 0 0-.835.413Zm-25.402-9.009c0 1.424.555 2.79 1.542 3.797a5.207 5.207 0 0 0 3.72 1.573 5.21 5.21 0 0 0 3.721-1.573 5.425 5.425 0 0 0 1.541-3.797 5.426 5.426 0 0 0-1.541-3.798 5.21 5.21 0 0 0-3.721-1.573 5.207 5.207 0 0 0-3.72 1.573 5.427 5.427 0 0 0-1.542 3.798Z" fill="#919191"/><path d="M129.912 361v-8.944l5.92 8.944h1.568v-11.568h-1.568v8.944l-5.92-8.944h-1.568V361h1.568Zm9.414-3.92c0 2.416 1.728 4.112 4.08 4.112 2.336 0 4.064-1.696 4.064-4.112 0-2.416-1.728-4.112-4.064-4.112-2.352 0-4.08 1.696-4.08 4.112Zm1.52 0c0-1.632 1.04-2.768 2.56-2.768 1.504 0 2.56 1.136 2.56 2.768s-1.056 2.768-2.56 2.768c-1.52 0-2.56-1.136-2.56-2.768Zm13.4-5.76a.997.997 0 0 0 .992-.992.987.987 0 0 0-.992-.992.987.987 0 0 0-.992.992c0 .544.448.992.992.992Zm-.736 9.68h1.504v-7.824h-1.504V361Zm5.191 0v-4.64c0-1.248.752-2.032 1.888-2.032 1.056 0 1.728.672 1.728 1.904V361h1.488v-4.64c0-1.248.752-2.048 1.888-2.048 1.056 0 1.744.704 1.744 1.936V361h1.472v-5.12c0-1.808-1.088-2.928-2.88-2.928-1.216 0-2.16.608-2.528 1.584-.4-.976-1.264-1.584-2.48-1.584-1.104 0-1.936.512-2.336 1.248l-.144-1.024h-1.344V361h1.504Zm14.581.192c1.264 0 2.336-.56 2.736-1.456l.16 1.264h1.28v-4.912c0-2.112-1.312-3.136-3.248-3.136-2.016 0-3.36 1.072-3.36 2.704h1.312c0-.944.72-1.504 1.984-1.504 1.056 0 1.84.464 1.84 1.776v.224l-2.464.192c-1.84.144-2.912 1.04-2.912 2.48 0 1.424.992 2.368 2.672 2.368Zm.432-1.168c-.976 0-1.584-.416-1.584-1.248 0-.768.544-1.28 1.872-1.408l2-.16v.416c0 1.472-.864 2.4-2.288 2.4Zm5.331-3.136c0 2.192 1.408 3.904 3.632 3.904 1.232 0 2.256-.544 2.768-1.456v1.568c0 1.488-.96 2.448-2.432 2.448-1.312 0-2.176-.672-2.368-1.824h-1.504c.288 1.984 1.744 3.184 3.872 3.184 2.4 0 3.92-1.568 3.92-4.032v-7.504h-1.344l-.112 1.328c-.496-.976-1.472-1.552-2.736-1.552-2.272 0-3.696 1.728-3.696 3.936Zm1.504-.032c0-1.44.896-2.592 2.4-2.592 1.536 0 2.432 1.088 2.432 2.592 0 1.536-.928 2.624-2.448 2.624-1.472 0-2.384-1.152-2.384-2.624Zm11.931 4.336c1.936 0 3.248-.944 3.632-2.624h-1.408c-.256.896-1.024 1.376-2.192 1.376-1.488 0-2.352-.912-2.464-2.56l6.048-.016v-.56c0-2.32-1.456-3.856-3.68-3.856-2.272 0-3.824 1.696-3.824 4.144 0 2.432 1.584 4.096 3.888 4.096Zm-.064-6.976c1.328 0 2.176.864 2.176 2.16h-4.512c.192-1.376 1.024-2.16 2.336-2.16Zm12.023 6.976c1.264 0 2.336-.56 2.736-1.456l.16 1.264h1.28v-4.912c0-2.112-1.312-3.136-3.248-3.136-2.016 0-3.36 1.072-3.36 2.704h1.312c0-.944.72-1.504 1.984-1.504 1.056 0 1.84.464 1.84 1.776v.224l-2.464.192c-1.84.144-2.912 1.04-2.912 2.48 0 1.424.992 2.368 2.672 2.368Zm.432-1.168c-.976 0-1.584-.416-1.584-1.248 0-.768.544-1.28 1.872-1.408l2-.16v.416c0 1.472-.864 2.4-2.288 2.4Zm8.962 1.168c1.248 0 2.304-.544 2.816-1.616l.128 1.424h1.344v-11.776h-1.488v5.216c-.528-.96-1.536-1.488-2.736-1.488-2.32 0-3.712 1.76-3.712 4.16 0 2.384 1.376 4.08 3.648 4.08Zm.304-1.36c-1.536 0-2.432-1.152-2.432-2.768 0-1.6.896-2.752 2.432-2.752s2.48 1.152 2.48 2.752c0 1.632-.944 2.768-2.48 2.768Zm9.29 1.36c1.248 0 2.304-.544 2.816-1.616l.128 1.424h1.344v-11.776h-1.488v5.216c-.528-.96-1.536-1.488-2.736-1.488-2.32 0-3.712 1.76-3.712 4.16 0 2.384 1.376 4.08 3.648 4.08Zm.304-1.36c-1.536 0-2.432-1.152-2.432-2.768 0-1.6.896-2.752 2.432-2.752s2.48 1.152 2.48 2.752c0 1.632-.944 2.768-2.48 2.768Zm9.53 1.36c1.936 0 3.248-.944 3.632-2.624h-1.408c-.256.896-1.024 1.376-2.192 1.376-1.488 0-2.352-.912-2.464-2.56l6.048-.016v-.56c0-2.32-1.456-3.856-3.68-3.856-2.272 0-3.824 1.696-3.824 4.144 0 2.432 1.584 4.096 3.888 4.096Zm-.064-6.976c1.328 0 2.176.864 2.176 2.16h-4.512c.192-1.376 1.024-2.16 2.336-2.16Zm8.496 6.976c1.248 0 2.304-.544 2.816-1.616l.128 1.424h1.344v-11.776h-1.488v5.216c-.528-.96-1.536-1.488-2.736-1.488-2.32 0-3.712 1.76-3.712 4.16 0 2.384 1.376 4.08 3.648 4.08Zm.304-1.36c-1.536 0-2.432-1.152-2.432-2.768 0-1.6.896-2.752 2.432-2.752s2.48 1.152 2.48 2.752c0 1.632-.944 2.768-2.48 2.768Zm9.777 4.672c.4.096.816.16 1.312.16 1.2 0 1.984-.56 2.512-1.904l3.696-9.584h-1.552l-2.32 6.304-2.272-6.304h-1.584l3.152 8.24-.272.752c-.368.992-.944 1.104-1.664 1.104h-1.008v1.232Zm11.799-3.312c1.936 0 3.248-.944 3.632-2.624h-1.408c-.256.896-1.024 1.376-2.192 1.376-1.488 0-2.352-.912-2.464-2.56l6.048-.016v-.56c0-2.32-1.456-3.856-3.68-3.856-2.272 0-3.824 1.696-3.824 4.144 0 2.432 1.584 4.096 3.888 4.096Zm-.064-6.976c1.328 0 2.176.864 2.176 2.16h-4.512c.192-1.376 1.024-2.16 2.336-2.16Zm7.49 6.784v-6.56h1.536v-1.264h-1.536v-2.448h-1.504v2.448h-1.536v1.264h1.536V361h1.504Z" fill="#000"/><rect x="1" y="1" width="405" height="548" rx="10" stroke="#D9D9D9" stroke-width="2" stroke-dasharray="18 18"/></g></svg>

<svg width="407" height="550" viewBox="0 0 407 550" fill="none" xmlns="http://www.w3.org/2000/svg">
<g opacity="0.5">
<rect x="1" y="1" width="405" height="548" rx="10" fill="#F7F7F7"/>
<path d="M202.442 231.967V203.288H162.059V303.132H236.942V237.543H208.058C206.569 237.543 205.14 236.956 204.087 235.91C203.034 234.864 202.442 233.446 202.442 231.967ZM184.523 238.605C187.479 238.605 189.872 240.982 189.872 243.916C189.872 246.85 187.479 249.227 184.523 249.227C181.568 249.227 179.175 246.85 179.175 243.916C179.175 240.982 181.568 238.605 184.523 238.605ZM224.104 277.64H174.909C174.013 277.64 173.518 276.618 174.067 275.927L187.412 259.039C187.512 258.912 187.64 258.809 187.786 258.738C187.932 258.668 188.092 258.631 188.254 258.631C188.417 258.631 188.577 258.668 188.723 258.738C188.869 258.809 188.997 258.912 189.097 259.039L194.593 265.996L204.996 252.825C205.097 252.698 205.226 252.595 205.373 252.525C205.52 252.454 205.682 252.417 205.845 252.417C206.008 252.417 206.17 252.454 206.317 252.525C206.464 252.595 206.593 252.698 206.694 252.825L224.947 275.927C225.495 276.618 225 277.64 224.104 277.64Z" fill="black" fill-opacity="0.15"/>
<path d="M244.982 223.83L216.413 195.248C215.617 194.452 214.541 194 213.413 194H157.019C154.669 194 152.771 195.899 152.771 198.25V308.75C152.771 311.101 154.669 313 157.019 313H241.981C244.331 313 246.23 311.101 246.23 308.75V226.845C246.23 225.716 245.778 224.627 244.982 223.83ZM211.448 203.802L236.432 228.797H211.448V203.802ZM236.671 303.438H162.329V203.562H202.421V232.25C202.421 233.729 203.008 235.148 204.054 236.194C205.1 237.24 206.518 237.828 207.996 237.828H236.671V303.438Z" fill="#919191"/>
<path d="M204.899 253.077L194.665 266.396L189.258 259.36C189.16 259.232 189.034 259.128 188.89 259.057C188.747 258.985 188.589 258.948 188.429 258.948C188.27 258.948 188.112 258.985 187.968 259.057C187.825 259.128 187.699 259.232 187.601 259.36L174.472 276.438C174.351 276.597 174.275 276.787 174.255 276.987C174.234 277.187 174.269 277.389 174.356 277.569C174.442 277.75 174.576 277.902 174.744 278.008C174.911 278.115 175.104 278.171 175.301 278.17H223.697C224.578 278.17 225.065 277.137 224.526 276.438L206.57 253.077C206.47 252.948 206.343 252.844 206.198 252.773C206.054 252.702 205.895 252.664 205.734 252.664C205.574 252.664 205.415 252.702 205.27 252.773C205.126 252.844 204.999 252.948 204.899 253.077ZM179.497 244.068C179.497 245.492 180.052 246.858 181.039 247.865C182.025 248.872 183.364 249.438 184.759 249.438C186.155 249.438 187.493 248.872 188.48 247.865C189.467 246.858 190.021 245.492 190.021 244.068C190.021 242.643 189.467 241.277 188.48 240.27C187.493 239.263 186.155 238.697 184.759 238.697C183.364 238.697 182.025 239.263 181.039 240.27C180.052 241.277 179.497 242.643 179.497 244.068Z" fill="#919191"/>
<path d="M129.912 361V352.056L135.832 361H137.4V349.432H135.832V358.376L129.912 349.432H128.344V361H129.912ZM139.326 357.08C139.326 359.496 141.054 361.192 143.406 361.192C145.742 361.192 147.47 359.496 147.47 357.08C147.47 354.664 145.742 352.968 143.406 352.968C141.054 352.968 139.326 354.664 139.326 357.08ZM140.846 357.08C140.846 355.448 141.886 354.312 143.406 354.312C144.91 354.312 145.966 355.448 145.966 357.08C145.966 358.712 144.91 359.848 143.406 359.848C141.886 359.848 140.846 358.712 140.846 357.08ZM154.246 351.32C154.79 351.32 155.238 350.872 155.238 350.328C155.238 349.768 154.79 349.336 154.246 349.336C153.702 349.336 153.254 349.768 153.254 350.328C153.254 350.872 153.702 351.32 154.246 351.32ZM153.51 361H155.014V353.176H153.51V361ZM158.701 361V356.36C158.701 355.112 159.453 354.328 160.589 354.328C161.645 354.328 162.317 355 162.317 356.232V361H163.805V356.36C163.805 355.112 164.557 354.312 165.693 354.312C166.749 354.312 167.437 355.016 167.437 356.248V361H168.909V355.88C168.909 354.072 167.821 352.952 166.029 352.952C164.813 352.952 163.869 353.56 163.501 354.536C163.101 353.56 162.237 352.952 161.021 352.952C159.917 352.952 159.085 353.464 158.685 354.2L158.541 353.176H157.197V361H158.701ZM173.282 361.192C174.546 361.192 175.618 360.632 176.018 359.736L176.178 361H177.458V356.088C177.458 353.976 176.146 352.952 174.21 352.952C172.194 352.952 170.85 354.024 170.85 355.656H172.162C172.162 354.712 172.882 354.152 174.146 354.152C175.202 354.152 175.986 354.616 175.986 355.928V356.152L173.522 356.344C171.682 356.488 170.61 357.384 170.61 358.824C170.61 360.248 171.602 361.192 173.282 361.192ZM173.714 360.024C172.738 360.024 172.13 359.608 172.13 358.776C172.13 358.008 172.674 357.496 174.002 357.368L176.002 357.208V357.624C176.002 359.096 175.138 360.024 173.714 360.024ZM179.045 356.888C179.045 359.08 180.453 360.792 182.677 360.792C183.909 360.792 184.933 360.248 185.445 359.336V360.904C185.445 362.392 184.485 363.352 183.013 363.352C181.701 363.352 180.837 362.68 180.645 361.528H179.141C179.429 363.512 180.885 364.712 183.013 364.712C185.413 364.712 186.933 363.144 186.933 360.68V353.176H185.589L185.477 354.504C184.981 353.528 184.005 352.952 182.741 352.952C180.469 352.952 179.045 354.68 179.045 356.888ZM180.549 356.856C180.549 355.416 181.445 354.264 182.949 354.264C184.485 354.264 185.381 355.352 185.381 356.856C185.381 358.392 184.453 359.48 182.933 359.48C181.461 359.48 180.549 358.328 180.549 356.856ZM192.48 361.192C194.416 361.192 195.728 360.248 196.112 358.568H194.704C194.448 359.464 193.68 359.944 192.512 359.944C191.024 359.944 190.16 359.032 190.048 357.384L196.096 357.368V356.808C196.096 354.488 194.64 352.952 192.416 352.952C190.144 352.952 188.592 354.648 188.592 357.096C188.592 359.528 190.176 361.192 192.48 361.192ZM192.416 354.216C193.744 354.216 194.592 355.08 194.592 356.376H190.08C190.272 355 191.104 354.216 192.416 354.216ZM204.439 361.192C205.703 361.192 206.775 360.632 207.175 359.736L207.335 361H208.615V356.088C208.615 353.976 207.303 352.952 205.367 352.952C203.351 352.952 202.007 354.024 202.007 355.656H203.319C203.319 354.712 204.039 354.152 205.303 354.152C206.359 354.152 207.143 354.616 207.143 355.928V356.152L204.679 356.344C202.839 356.488 201.767 357.384 201.767 358.824C201.767 360.248 202.759 361.192 204.439 361.192ZM204.871 360.024C203.895 360.024 203.287 359.608 203.287 358.776C203.287 358.008 203.831 357.496 205.159 357.368L207.159 357.208V357.624C207.159 359.096 206.295 360.024 204.871 360.024ZM213.833 361.192C215.081 361.192 216.137 360.648 216.649 359.576L216.777 361H218.121V349.224H216.633V354.44C216.105 353.48 215.097 352.952 213.897 352.952C211.577 352.952 210.185 354.712 210.185 357.112C210.185 359.496 211.561 361.192 213.833 361.192ZM214.137 359.832C212.601 359.832 211.705 358.68 211.705 357.064C211.705 355.464 212.601 354.312 214.137 354.312C215.673 354.312 216.617 355.464 216.617 357.064C216.617 358.696 215.673 359.832 214.137 359.832ZM223.427 361.192C224.675 361.192 225.731 360.648 226.243 359.576L226.371 361H227.715V349.224H226.227V354.44C225.699 353.48 224.691 352.952 223.491 352.952C221.171 352.952 219.779 354.712 219.779 357.112C219.779 359.496 221.155 361.192 223.427 361.192ZM223.731 359.832C222.195 359.832 221.299 358.68 221.299 357.064C221.299 355.464 222.195 354.312 223.731 354.312C225.267 354.312 226.211 355.464 226.211 357.064C226.211 358.696 225.267 359.832 223.731 359.832ZM233.261 361.192C235.197 361.192 236.509 360.248 236.893 358.568H235.485C235.229 359.464 234.461 359.944 233.293 359.944C231.805 359.944 230.941 359.032 230.829 357.384L236.877 357.368V356.808C236.877 354.488 235.421 352.952 233.197 352.952C230.925 352.952 229.373 354.648 229.373 357.096C229.373 359.528 230.957 361.192 233.261 361.192ZM233.197 354.216C234.525 354.216 235.373 355.08 235.373 356.376H230.861C231.053 355 231.885 354.216 233.197 354.216ZM241.693 361.192C242.941 361.192 243.997 360.648 244.509 359.576L244.637 361H245.981V349.224H244.493V354.44C243.965 353.48 242.957 352.952 241.757 352.952C239.437 352.952 238.045 354.712 238.045 357.112C238.045 359.496 239.421 361.192 241.693 361.192ZM241.997 359.832C240.461 359.832 239.565 358.68 239.565 357.064C239.565 355.464 240.461 354.312 241.997 354.312C243.533 354.312 244.477 355.464 244.477 357.064C244.477 358.696 243.533 359.832 241.997 359.832ZM251.774 364.504C252.174 364.6 252.59 364.664 253.086 364.664C254.286 364.664 255.07 364.104 255.598 362.76L259.294 353.176H257.742L255.422 359.48L253.15 353.176H251.566L254.718 361.416L254.446 362.168C254.078 363.16 253.502 363.272 252.782 363.272H251.774V364.504ZM263.573 361.192C265.509 361.192 266.821 360.248 267.205 358.568H265.797C265.541 359.464 264.773 359.944 263.605 359.944C262.117 359.944 261.253 359.032 261.141 357.384L267.189 357.368V356.808C267.189 354.488 265.733 352.952 263.509 352.952C261.237 352.952 259.685 354.648 259.685 357.096C259.685 359.528 261.269 361.192 263.573 361.192ZM263.509 354.216C264.837 354.216 265.685 355.08 265.685 356.376H261.173C261.365 355 262.197 354.216 263.509 354.216ZM270.999 361V354.44H272.535V353.176H270.999V350.728H269.495V353.176H267.959V354.44H269.495V361H270.999Z" fill="black"/>
<rect x="1" y="1" width="405" height="548" rx="10" stroke="#D9D9D9" stroke-width="2" stroke-dasharray="18 18"/>
</g>
</svg>
